X: 3
T: I Buried My Wife And Danced On Her Grave (listening to Catherine McEvoy - Comb your Hair and Curl It)
R: jig
M: 6/8
L: 1/8
K: Dmix
|:DED F2 G|AdB =cAF|G3 BAG|F3 GEA|
|DED F2 G|Azd =cAF|G3 BAG|1 AFD D2 z:|2 AFD DFA||
|:d2e f3|faf gfe|d2e fed|dcA dcA|
| d2e f3|a3 gfe|dcA BAG|1 AFD DFA:|2 AFD D2 z||

